static/logos/usersnap-wordmark-color.svg

<svg width="100" height="19" viewBox="0 0 100 19" fill="none" xmlns="http://www.w3.org/2000/svg">
<g clip-path="url(#clip0_1_479)">
<path d="M50.7563 8.27808C50.4629 6.86798 49.4452 6.31943 48.3888 6.31943C47.0386 6.31943 46.1384 7.04404 45.8254 8.27808H50.7563ZM48.4867 12.2935C49.3865 12.2935 50.1695 11.8625 50.5021 11.3144L52.987 11.2948C52.3803 13.2731 50.6583 14.3894 48.4672 14.3894C45.2774 14.3894 43.2233 12.137 43.2233 9.21886C43.2233 6.29979 45.3166 4.04741 48.4084 4.04741C51.2847 4.04741 53.2803 6.33902 53.2803 9.21886C53.2803 9.59057 53.2606 9.92347 53.1824 10.2564H45.845C46.1776 11.6473 47.2344 12.2935 48.4867 12.2935ZM33.1624 4.3213V14.1155H30.6382V13.0964C30.0907 13.9391 29.1905 14.3892 27.9774 14.3892C26.1575 14.3892 24.7881 12.9792 24.7881 10.5699V4.3213H27.3119V10.3934C27.3119 11.5103 27.9774 12.0392 28.8579 12.0392C29.8556 12.0392 30.6382 11.471 30.6382 9.98207V4.3213H33.1624ZM42.3697 11.2751C42.3697 13.3515 40.5694 14.3894 38.4174 14.3894C36.2649 14.3894 34.4646 13.2922 34.4646 11.0006H36.93C36.93 11.7645 37.4976 12.1566 38.4174 12.1566C39.3371 12.1566 39.8455 11.8433 39.8455 11.2751C39.8455 9.59052 34.5821 10.9226 34.5821 7.16207C34.5821 5.10535 36.3824 4.04737 38.4174 4.04737C40.3739 4.04737 42.1742 5.14415 42.1742 7.43617H39.7088C39.7088 6.67187 39.1412 6.27974 38.4174 6.27974C37.6151 6.27974 37.1063 6.59347 37.1063 7.16207C37.1063 8.86585 42.3697 7.49456 42.3697 11.2751ZM59.7487 4.12584V6.94642C58.4378 6.78959 57.0679 7.37736 57.0679 9.27684V14.1153H54.544V4.3215H57.0679V5.79041C57.557 4.63481 58.5549 4.12584 59.7487 4.12584ZM68.4751 11.2751C68.4751 13.3515 66.6746 14.3894 64.5228 14.3894C62.3705 14.3894 60.5699 13.2922 60.5699 11.0006H63.0352C63.0352 11.7645 63.6031 12.1566 64.5228 12.1566C65.4425 12.1566 65.9508 11.8433 65.9508 11.2751C65.9508 9.59052 60.6876 10.9226 60.6876 7.16207C60.6876 5.10535 62.4876 4.04737 64.5228 4.04737C66.4793 4.04737 68.2798 5.14415 68.2798 7.43617H65.814C65.814 6.67187 65.2466 6.27974 64.5228 6.27974C63.7207 6.27974 63.2119 6.59347 63.2119 7.16207C63.2119 8.86585 68.4751 7.49456 68.4751 11.2751ZM78.0865 7.84725V14.1155H75.5627V8.04295C75.5627 6.92653 74.8974 6.39798 74.0166 6.39798C73.0192 6.39798 72.256 6.96617 72.256 8.43466V14.1155H69.7321V4.32122H72.256V5.32036C72.8036 4.49768 73.7036 4.04712 74.9171 4.04712C76.7363 4.04712 78.0865 5.45762 78.0865 7.84725ZM85.2601 11.2947C85.2601 10.5504 84.5751 10.0803 83.4596 10.0803C82.3446 10.0803 81.8357 10.5892 81.8357 11.2947C81.8357 11.9997 82.3446 12.5091 83.4596 12.5091C84.5751 12.5091 85.2601 11.9997 85.2601 11.2947ZM87.7254 7.88627V14.1153H85.2601V13.273C84.6922 13.9584 83.8316 14.3894 82.599 14.3894C80.8575 14.3894 79.3119 13.3514 79.3119 11.2947C79.3119 9.23798 80.8575 8.21959 82.599 8.21959C83.8316 8.21959 84.6922 8.59171 85.2601 9.08109V8.04311C85.2601 6.88751 84.6731 6.39819 83.7337 6.39819C82.814 6.39819 82.2269 6.88751 82.2269 7.6514H79.7617C79.7617 5.34021 81.5813 4.04733 83.7337 4.04733C85.9057 4.04733 87.7254 5.34021 87.7254 7.88627ZM97.1741 9.21871C97.1741 7.5729 96.0197 6.45653 94.4544 6.45653C92.9674 6.45653 91.8321 7.49451 91.7539 9.04187V9.39477C91.8321 10.9425 92.9674 11.9805 94.4544 11.9805C96.0197 11.9805 97.1741 10.8637 97.1741 9.21871ZM99.6984 9.21871C99.6984 12.1374 97.5456 14.3893 94.9243 14.3893C93.4953 14.3893 92.4586 13.8603 91.7539 12.9792V18.0326H89.2301V4.32138H91.7539V5.45777C92.4586 4.57627 93.4953 4.04729 94.9243 4.04729C97.5456 4.04729 99.6984 6.29969 99.6984 9.21871ZM14.1794 7.40451C14.287 7.65964 14.3745 7.92285 14.4411 8.19166C14.4665 8.29487 14.4887 8.39881 14.5078 8.50342C15.0281 11.3556 13.1402 14.0899 10.291 14.6106C7.78767 15.0727 5.27492 13.6252 4.41616 11.2261C4.30565 10.9167 4.22381 10.5977 4.17158 10.2734C4.15193 10.1427 4.18685 10.0097 4.26813 9.9056C4.43154 9.69642 4.73339 9.65943 4.94239 9.82301C5.3828 10.1668 5.87528 10.438 6.40119 10.6263C9.12746 11.6021 12.1278 10.1808 13.1026 7.45161C13.2808 6.95358 13.9747 6.91705 14.1794 7.40451ZM9.31679 18.6528C4.17126 18.6528 0 14.4773 0 9.32642C0 4.17558 4.17126 0 9.31679 0C14.4623 0 18.6335 4.17558 18.6335 9.32642C18.6335 14.4773 14.4623 18.6528 9.31679 18.6528ZM9.31679 16.6973C13.3834 16.6973 16.68 13.3973 16.68 9.32642C16.68 5.2556 13.3834 1.95557 9.31679 1.95557C5.25016 1.95557 1.95354 5.2556 1.95354 9.32642C1.95354 13.3973 5.25016 16.6973 9.31679 16.6973Z" fill="#3A21CE"/>
</g>
<defs>
<clipPath id="clip0_1_479">
<rect width="100" height="18.6528" fill="white"/>
</clipPath>
</defs>
</svg>

<svg xmlns="http://www.w3.org/2000/svg" width="336.842" height="64" fill="none" viewBox="0 0 100 19"><g clip-path="url(#a)"><path fill="#3A21CE" d="M50.756 8.278c-.293-1.41-1.31-1.959-2.367-1.959-1.35 0-2.25.725-2.564 1.96h4.931Zm-2.27 4.015c.9 0 1.684-.43 2.016-.979l2.485-.02c-.607 1.98-2.329 3.095-4.52 3.095-3.19 0-5.244-2.252-5.244-5.17 0-2.92 2.094-5.172 5.185-5.172 2.877 0 4.872 2.292 4.872 5.172 0 .372-.02.704-.098 1.037h-7.337c.333 1.391 1.39 2.037 2.642 2.037ZM33.163 4.321v9.794h-2.524v-1.019c-.547.843-1.448 1.293-2.66 1.293-1.82 0-3.19-1.41-3.19-3.82V4.322h2.524v6.072c0 1.117.665 1.646 1.546 1.646.998 0 1.78-.568 1.78-2.057v-5.66h2.524Zm9.208 6.954c0 2.076-1.8 3.114-3.953 3.114-2.152 0-3.952-1.097-3.952-3.388h2.465c0 .764.568 1.156 1.487 1.156.92 0 1.428-.314 1.428-.882 0-1.684-5.263-.352-5.263-4.113 0-2.057 1.8-3.115 3.835-3.115 1.957 0 3.757 1.097 3.757 3.39H39.71c0-.765-.568-1.157-1.292-1.157-.802 0-1.31.313-1.31.882 0 1.704 5.263.333 5.263 4.113Zm17.379-7.15v2.821c-1.311-.156-2.681.431-2.681 2.33v4.84h-2.524V4.321h2.524V5.79c.489-1.155 1.487-1.664 2.68-1.664Zm8.726 7.15c0 2.076-1.8 3.114-3.952 3.114s-3.953-1.097-3.953-3.388h2.465c0 .764.568 1.156 1.488 1.156s1.428-.314 1.428-.882c0-1.684-5.263-.352-5.263-4.113 0-2.057 1.8-3.115 3.835-3.115 1.956 0 3.757 1.097 3.757 3.39h-2.466c0-.765-.567-1.157-1.291-1.157-.802 0-1.311.313-1.311.882 0 1.704 5.263.333 5.263 4.113Zm9.612-3.428v6.269h-2.524V8.043c0-1.116-.666-1.645-1.546-1.645-.998 0-1.761.568-1.761 2.037v5.68h-2.524V4.322h2.524v1c.548-.823 1.448-1.274 2.661-1.274 1.82 0 3.17 1.41 3.17 3.8Zm7.173 3.448c0-.745-.685-1.215-1.8-1.215s-1.624.51-1.624 1.215c0 .705.509 1.214 1.624 1.214 1.115 0 1.8-.51 1.8-1.214Zm2.465-3.409v6.23H85.26v-.843c-.568.685-1.428 1.116-2.661 1.116-1.742 0-3.287-1.038-3.287-3.094 0-2.057 1.546-3.075 3.287-3.075 1.233 0 2.093.372 2.661.861V8.043c0-1.155-.587-1.645-1.526-1.645-.92 0-1.507.49-1.507 1.253h-2.465c0-2.31 1.82-3.604 3.972-3.604 2.172 0 3.991 1.293 3.991 3.84Zm9.45 1.333c0-1.646-1.155-2.762-2.72-2.762-1.488 0-2.623 1.038-2.701 2.585v.353c.078 1.548 1.213 2.585 2.7 2.585 1.566 0 2.72-1.116 2.72-2.761Zm2.523 0c0 2.918-2.152 5.17-4.774 5.17-1.429 0-2.465-.529-3.17-1.41v5.054H89.23V4.32h2.524v1.137c.705-.882 1.741-1.41 3.17-1.41 2.622 0 4.774 2.252 4.774 5.17ZM14.18 7.405a5.315 5.315 0 0 1 .329 1.098 5.249 5.249 0 0 1-4.217 6.108c-2.503.462-5.016-.986-5.875-3.385a5.372 5.372 0 0 1-.244-.953.481.481 0 0 1 .77-.45 5.241 5.241 0 0 0 8.16-2.371c.179-.498.873-.535 1.077-.047ZM9.317 18.653C4.17 18.653 0 14.477 0 9.326 0 4.176 4.171 0 9.317 0c5.145 0 9.317 4.176 9.317 9.326 0 5.151-4.172 9.327-9.317 9.327Zm0-1.956c4.066 0 7.363-3.3 7.363-7.37 0-4.071-3.297-7.371-7.363-7.371-4.067 0-7.363 3.3-7.363 7.37 0 4.071 3.296 7.371 7.363 7.371Z"/></g><defs><clipPath id="a"><path fill="#fff" d="M0 0h100v18.653H0z"/></clipPath></defs></svg>
